X:154 
T:O'Shea's the Man!* (reel)
F:file ID: cre.5/154oshea
B:CRE5.125 (gan ainm)
M:4/4
Q:180
R:reel
K:G
D|GBB2 AGED|G2Bd eBdB|AD (3FED A3A|BdcA BdcA|
GBB2 AGED|G2BG ABcA|dg~g2 ag~g2|fdcA G3:|
B|dg~g2 fgaf|gdBG D2[BB,]D|[GG,]CEC [BB,]CDG|FGAB c2Bc|
dg~g2 fgaf|gdBG D2[BB,]D|[GG,]CEC [BB,]CDG|cAFD G3:|

